packages/web/src/assets/button/Group 845.svg

<svg width="32" height="32" fill="none" xmlns="http://www.w3.org/2000/svg"><path fill="url(#paint0_linear)" d="M0 0H32V32H0z"/><path fill-rule="evenodd" clip-rule="evenodd" d="M4 16c0 6.617 5.383 12 12 12s12-5.383 12-12S22.617 4 16 4 4 9.383 4 16zm1.5 0c0-5.79 4.71-10.5 10.5-10.5S26.5 10.21 26.5 16 21.79 26.5 16 26.5 5.5 21.79 5.5 16zm10.125-3.75a1.125 1.125 0 1 0 0-2.25 1.125 1.125 0 0 0 0 2.25zm1.875 9A2.252 2.252 0 0 1 15.25 19v-3.75h-.75a.75.75 0 0 1 0-1.5h.75c.827 0 1.5.673 1.5 1.5V19c0 .414.336.75.75.75h.75a.75.75 0 0 1 0 1.5h-.75z" fill="#000"/><defs><linearGradient id="paint0_linear" y1="-5.5" x2="38.414" y2="28.822" gradientUnits="userSpaceOnUse"><stop stop-color="#29D305" stop-opacity=".2"/><stop offset=".464" stop-color="#A9D5A9" stop-opacity=".33"/><stop offset=".911" stop-color="#B9E6FF" stop-opacity=".59"/></linearGradient></defs></svg>

<svg width="32" height="32" viewBox="0 0 32 32" fill="none" xmlns="http://www.w3.org/2000/svg">
<rect width="32" height="32" fill="url(#paint0_linear)"/>
<path fill-rule="evenodd" clip-rule="evenodd" d="M4 16C4 22.617 9.383 28 16 28C22.617 28 28 22.617 28 16C28 9.383 22.617 4 16 4C9.383 4 4 9.383 4 16ZM5.5 16C5.5 10.21 10.21 5.5 16 5.5C21.79 5.5 26.5 10.21 26.5 16C26.5 21.79 21.79 26.5 16 26.5C10.21 26.5 5.5 21.79 5.5 16ZM15.625 12.25C16.2463 12.25 16.75 11.7463 16.75 11.125C16.75 10.5037 16.2463 10 15.625 10C15.0037 10 14.5 10.5037 14.5 11.125C14.5 11.7463 15.0037 12.25 15.625 12.25ZM17.5 21.25C16.259 21.25 15.25 20.241 15.25 19V15.25H14.5C14.086 15.25 13.75 14.914 13.75 14.5C13.75 14.086 14.086 13.75 14.5 13.75H15.25C16.077 13.75 16.75 14.423 16.75 15.25V19C16.75 19.414 17.086 19.75 17.5 19.75H18.25C18.664 19.75 19 20.086 19 20.5C19 20.914 18.664 21.25 18.25 21.25H17.5Z" fill="black"/>
<defs>
<linearGradient id="paint0_linear" x1="1.18705e-06" y1="-5.5" x2="38.4137" y2="28.8217" gradientUnits="userSpaceOnUse">
<stop stop-color="#29D305" stop-opacity="0.2"/>
<stop offset="0.463542" stop-color="#A9D5A9" stop-opacity="0.33"/>
<stop offset="0.910913" stop-color="#B9E6FF" stop-opacity="0.59"/>
</linearGradient>
</defs>
</svg>
